X: 34350
T: Return To Miltown, The
R: reel
M: 4/4
K: Ddorian
|:D2ED D2ED|c2Ec FcEc|D2ED D2ED|cDEG AEGE|
D2ED D2ED|c2Ec FcEc|F2FD E2ED|cDEG AEGE:|
K:Dmix
|:d2de f2ed|(3B^cd ef g2ge|d2de f2ed|cAGE EDD2|
d2de f2ed|(3B^cd ef g2ge|f2fd e2ed|cAGE EDD2:|
K:Ddor
|:D2AD EDAD|C2EC FCEC|D2AD EDAD|CDEG AEGE|
D2AD EDAD|C2EC FCEC|~F3D ~E3D|CDEG AEGE:|
|:~d3e ^f2ed|^cde^f g2fe|~d3e ^f2ed|^cAGE EDD2|
~d3e ^f2ed|^cde^f g2^fe|~f3d e^fed|^cAGE EDD2:|

